img/skills/Redux.svg

<svg width="46" height="55" viewBox="0 0 46 55" fill="none" xmlns="http://www.w3.org/2000/svg">
<path d="M23 2L1 15V40.5L23 53L45 40.5V15L23 2Z" fill="#764ABC" stroke="#673AB7" stroke-width="2"/>
<path d="M28.7922 32.8547C29.8796 32.7609 30.7209 31.8047 30.6671 30.6622C30.6084 29.5197 29.6721 28.6023 28.5309 28.6023H28.4547C27.8883 28.6224 27.3532 28.8667 26.9669 29.2814C26.5806 29.696 26.3748 30.2471 26.3947 30.8135C26.4322 31.4122 26.6772 31.8997 27.0122 32.2547C25.7022 34.8022 23.736 36.6746 20.756 38.2483C18.7523 39.2958 16.6361 39.6908 14.5761 39.4108C12.8537 39.1671 11.5062 38.3983 10.6812 37.1621C9.44621 35.2884 9.33371 33.2672 10.3624 31.2447C11.1124 29.7822 12.2362 28.716 12.9862 28.191C12.7597 27.5632 12.5842 26.9182 12.4612 26.2623C6.915 30.2347 7.47999 35.6646 9.16496 38.2308C10.4199 40.1033 12.9862 41.3008 15.7949 41.3008C16.5448 41.3008 17.3323 41.2458 18.0986 41.0583C22.9697 40.1221 26.6584 37.2009 28.7747 32.8934L28.7922 32.8547ZM35.477 28.1723C32.5771 24.7623 28.3047 22.8898 23.4347 22.8898H22.7972C22.481 22.1974 21.751 21.7661 20.9248 21.7661H20.8685C19.6898 21.7661 18.7711 22.7786 18.8098 23.9573C18.8473 25.0798 19.8023 26.0173 20.9448 26.0173H21.0373C21.4425 26.0016 21.8347 25.8697 22.1669 25.6372C22.4992 25.4047 22.7575 25.0814 22.911 24.7061H23.6047C26.4909 24.7061 29.2234 25.5486 31.7146 27.196C33.6233 28.4523 34.9921 30.0997 35.7608 32.0672C36.4333 33.6772 36.397 35.2509 35.7045 36.5634C34.6358 38.6221 32.8371 39.7096 30.4596 39.7096C28.9609 39.7096 27.5009 39.2408 26.7509 38.9046C26.3009 39.2771 25.551 39.8958 25.0085 40.2708C26.6559 41.0183 28.3234 41.4495 29.9334 41.4495C33.5858 41.4495 36.3008 39.3908 37.332 37.4046C38.4545 35.1571 38.362 31.3747 35.4945 28.1348L35.477 28.1723ZM16.1124 33.5272C16.1499 34.6509 17.1036 35.5871 18.2473 35.5871H18.3223C18.6038 35.5808 18.8811 35.5182 19.138 35.403C19.3949 35.2878 19.6262 35.1223 19.8181 34.9164C20.0101 34.7104 20.1589 34.4682 20.2558 34.2038C20.3527 33.9395 20.3957 33.6584 20.3823 33.3772C20.3823 32.2522 19.4086 31.3185 18.2661 31.3185H18.1911C18.1161 31.3185 18.0036 31.3185 17.9086 31.3547C16.3548 28.7322 15.6986 25.921 15.9436 22.8898C16.0936 20.6049 16.8436 18.6187 18.1898 16.9712C19.3148 15.5662 21.431 14.8712 22.8735 14.8362C26.9184 14.76 28.6047 19.7999 28.7347 21.8036L30.6071 22.3661C30.1759 16.2212 26.3572 13 22.7047 13C19.2748 13 16.1124 15.4912 14.8374 19.1437C13.0962 24.0123 14.2386 28.696 16.3748 32.4422C16.1874 32.6859 16.0749 33.1159 16.1124 33.5272Z" fill="url(#paint0_linear_594_3437)"/>
<defs>
<linearGradient id="paint0_linear_594_3437" x1="14.25" y1="23.8333" x2="36.75" y2="23.8333" gradientUnits="userSpaceOnUse">
<stop stop-color="#EDEDED"/>
<stop offset="1" stop-color="white"/>
</linearGradient>
</defs>
</svg>

<svg width="46" height="55" fill="none" xmlns="http://www.w3.org/2000/svg"><path d="M23 2 1 15v25.5L23 53l22-12.5V15L23 2z" fill="#764ABC" stroke="#673AB7" stroke-width="2"/><path d="M28.792 32.855c1.088-.094 1.929-1.05 1.875-2.193-.059-1.142-.995-2.06-2.136-2.06h-.076a2.137 2.137 0 0 0-2.06 2.212c.037.598.282 1.086.617 1.44-1.31 2.548-3.276 4.42-6.256 5.994-2.004 1.048-4.12 1.443-6.18 1.163-1.722-.244-3.07-1.013-3.895-2.249-1.235-1.874-1.347-3.895-.319-5.917.75-1.463 1.874-2.529 2.624-3.054a12.439 12.439 0 0 1-.525-1.929c-5.546 3.973-4.981 9.403-3.296 11.969 1.255 1.872 3.821 3.07 6.63 3.07.75 0 1.537-.055 2.304-.243 4.87-.936 8.56-3.857 10.676-8.165l.017-.038zm6.685-4.683c-2.9-3.41-7.172-5.282-12.042-5.282h-.638c-.316-.693-1.046-1.124-1.872-1.124h-.056c-1.18 0-2.098 1.013-2.06 2.191a2.158 2.158 0 0 0 2.136 2.06h.092a2.113 2.113 0 0 0 1.874-1.31h.694c2.886 0 5.618.842 8.11 2.489 1.908 1.256 3.277 2.904 4.046 4.871.672 1.61.636 3.184-.056 4.496-1.07 2.06-2.868 3.147-5.245 3.147-1.5 0-2.96-.47-3.71-.805-.45.372-1.199.99-1.741 1.366 1.647.747 3.314 1.178 4.924 1.178 3.653 0 6.368-2.058 7.399-4.044 1.123-2.248 1.03-6.03-1.837-9.27l-.018.037zm-19.365 5.355a2.156 2.156 0 0 0 2.135 2.06h.075a2.109 2.109 0 0 0 2.06-2.21c0-1.125-.973-2.059-2.116-2.059h-.075c-.075 0-.187 0-.282.037-1.554-2.623-2.21-5.434-1.965-8.465.15-2.285.9-4.271 2.246-5.919 1.125-1.405 3.241-2.1 4.683-2.135 4.045-.076 5.732 4.964 5.862 6.968l1.872.562C30.176 16.221 26.357 13 22.705 13c-3.43 0-6.593 2.491-7.868 6.144-1.74 4.868-.598 9.552 1.538 13.298-.188.244-.3.674-.263 1.085z" fill="url(#a)"/><defs><linearGradient id="a" x1="14.25" y1="23.833" x2="36.75" y2="23.833" gradientUnits="userSpaceOnUse"><stop stop-color="#EDEDED"/><stop offset="1" stop-color="#fff"/></linearGradient></defs></svg>
